packages/components/src/components/icon/common/ic-long-arrow-down.svg

<svg width="24" height="24" viewBox="0 0 24 24" fill="none" xmlns="http://www.w3.org/2000/svg">
<path d="M12 3C12.4142 3 12.75 3.33579 12.75 3.75V18.438L16.7197 14.4697C16.98 14.2093 17.3842 14.1804 17.6765 14.3829L17.7803 14.4697C18.0732 14.7626 18.0732 15.2374 17.7803 15.5303L12.5303 20.7803C12.5242 20.7865 12.518 20.7925 12.5117 20.7983C12.4932 20.8156 12.4736 20.8321 12.4532 20.8476C12.4359 20.8608 12.4183 20.8731 12.4002 20.8845C12.3835 20.895 12.3661 20.9051 12.3482 20.9144C12.3274 20.9254 12.3068 20.935 12.2859 20.9436C12.267 20.9514 12.2471 20.9587 12.2268 20.9651C12.2038 20.9723 12.1807 20.9784 12.1575 20.9834C12.107 20.9943 12.0541 21 12 21L12.1079 20.9922C12.0823 20.9959 12.0566 20.9983 12.0309 20.9994L12 21C11.9898 21 11.9796 20.9998 11.9695 20.9994C11.9444 20.9984 11.9182 20.996 11.8921 20.9922C11.8749 20.9898 11.8584 20.9869 11.8422 20.9834C11.8193 20.9784 11.7962 20.9723 11.7735 20.9651C11.7529 20.9587 11.733 20.9514 11.7134 20.9433C11.6932 20.935 11.6726 20.9254 11.6524 20.9148C11.6339 20.9051 11.6165 20.895 11.5995 20.8842C11.5536 20.8553 11.5099 20.8206 11.4697 20.7803L11.5468 20.8476C11.5264 20.8321 11.5068 20.8156 11.4881 20.7981L11.4697 20.7803L6.21967 15.5303C5.92678 15.2374 5.92678 14.7626 6.21967 14.4697C6.51256 14.1768 6.98744 14.1768 7.28033 14.4697L11.25 18.438V3.75C11.25 3.38181 11.5153 3.07559 11.8652 3.01208L12 3Z" fill="#333333"/>
</svg>

<svg xmlns="http://www.w3.org/2000/svg" width="24" height="24" fill="none"><path fill="#333" d="M12 3a.75.75 0 0 1 .75.75v14.688l3.97-3.968a.75.75 0 0 1 .957-.087l.103.087a.75.75 0 0 1 0 1.06l-5.25 5.25a.524.524 0 0 1-.077.068.719.719 0 0 1-.295.135A.747.747 0 0 1 12 21l.108-.008a.768.768 0 0 1-.077.007L12 21a.772.772 0 0 1-.348-.085.731.731 0 0 1-.182-.135l.077.068a.75.75 0 0 1-.059-.05l-.018-.018-5.25-5.25a.75.75 0 1 1 1.06-1.06l3.97 3.968V3.75a.75.75 0 0 1 .615-.738L12 3Z"/></svg>
